assets/svg/currencies/fiat/JPY.svg

<svg width="300" height="300" viewBox="0 0 300 300" fill="none" xmlns="http://www.w3.org/2000/svg">
<path d="M150 300C232.843 300 300 232.843 300 150C300 67.1573 232.843 0 150 0C67.1573 0 0 67.1573 0 150C0 232.843 67.1573 300 150 300Z" fill="#10BA97"/>
<path d="M125.16 139.92L89.4004 66H117.48L149.16 135.6L180.84 66H208.92L173.16 139.92H198.36V162H162.36V178.08H198.36V200.16H162.36V234H135.96V200.16H99.9604V178.08H135.96V162H99.9604V139.92H125.16Z" fill="white"/>
</svg>

<svg viewBox="0 0 300 300" fill="none" xmlns="http://www.w3.org/2000/svg">
    <path d="M150 300c82.843 0 150-67.157 150-150S232.843 0 150 0 0 67.157 0 150s67.157 150 150 150z" fill="#10BA97"/>
    <path d="M125.16 139.92L89.4 66h28.08l31.68 69.6L180.84 66h28.08l-35.76 73.92h25.2V162h-36v16.08h36v22.08h-36V234h-26.4v-33.84h-36v-22.08h36V162h-36v-22.08h25.2z" fill="#fff"/>
</svg>
